dist/assets/img/questions/8/answers/1_1200.svg

<svg width="486" height="235" viewBox="0 0 486 235" fill="none" xmlns="http://www.w3.org/2000/svg">
<g filter="url(#filter0_di_1419_50030)">
<path fill-rule="evenodd" clip-rule="evenodd" d="M84.086 28C79.9537 28 76.5014 31.1471 76.1201 35.2618L74.8953 48.4788C74.5912 51.7595 72.2958 54.4876 69.2202 55.6689C58.7285 59.6987 43.8637 68.1425 40.004 80.5245C39.9812 80.5976 40.0611 80.6593 40.1262 80.6192C44.6469 77.8313 53.4824 72.3826 64.0517 69.9609C68.7397 68.8868 72.623 72.9984 72.1792 77.7873L59.8098 211.262C59.3752 215.952 63.0658 220 67.7757 220H420.914C425.046 220 428.499 216.853 428.88 212.738L445.19 36.7382C445.625 32.0485 441.934 28 437.224 28H84.086Z" fill="#FFF0CB"/>
</g>
<defs>
<filter id="filter0_di_1419_50030" x="0" y="0" width="485.225" height="272" filterUnits="userSpaceOnUse" color-interpolation-filters="sRGB">
<feFlood flood-opacity="0" result="BackgroundImageFix"/>
<feColorMatrix in="SourceAlpha" type="matrix" values="0 0 0 0 0 0 0 0 0 0 0 0 0 0 0 0 0 0 127 0" result="hardAlpha"/>
<feOffset dy="12"/>
<feGaussianBlur stdDeviation="20"/>
<feComposite in2="hardAlpha" operator="out"/>
<feColorMatrix type="matrix" values="0 0 0 0 1 0 0 0 0 1 0 0 0 0 1 0 0 0 1 0"/>
<feBlend mode="normal" in2="BackgroundImageFix" result="effect1_dropShadow_1419_50030"/>
<feBlend mode="normal" in="SourceGraphic" in2="effect1_dropShadow_1419_50030" result="shape"/>
<feColorMatrix in="SourceAlpha" type="matrix" values="0 0 0 0 0 0 0 0 0 0 0 0 0 0 0 0 0 0 127 0" result="hardAlpha"/>
<feOffset dy="-4"/>
<feGaussianBlur stdDeviation="4"/>
<feComposite in2="hardAlpha" operator="arithmetic" k2="-1" k3="1"/>
<feColorMatrix type="matrix" values="0 0 0 0 0.883659 0 0 0 0 0.635314 0 0 0 0 0.0558422 0 0 0 0.4 0"/>
<feBlend mode="normal" in2="shape" result="effect2_innerShadow_1419_50030"/>
</filter>
</defs>
</svg>

<svg width="486" height="235" viewBox="0 0 486 235" fill="none" xmlns="http://www.w3.org/2000/svg"><g filter="url(#filter0_di_1419_50030)"><path fill-rule="evenodd" clip-rule="evenodd" d="M84.086 28a8 8 0 00-7.966 7.262l-1.225 13.217c-.304 3.28-2.6 6.009-5.675 7.19-10.492 4.03-25.356 12.474-29.216 24.856a.082.082 0 00.122.094c4.52-2.788 13.356-8.236 23.926-10.658 4.688-1.074 8.571 3.037 8.127 7.826L59.81 211.262c-.434 4.69 3.257 8.738 7.967 8.738h353.138a8 8 0 007.966-7.262l16.31-176c.435-4.69-3.256-8.738-7.966-8.738H84.086z" fill="#FFF0CB"/></g><defs><filter id="filter0_di_1419_50030" x="0" y="0" width="485.225" height="272" filterUnits="userSpaceOnUse" color-interpolation-filters="sRGB"><feFlood flood-opacity="0" result="BackgroundImageFix"/><feColorMatrix in="SourceAlpha" values="0 0 0 0 0 0 0 0 0 0 0 0 0 0 0 0 0 0 127 0" result="hardAlpha"/><feOffset dy="12"/><feGaussianBlur stdDeviation="20"/><feComposite in2="hardAlpha" operator="out"/><feColorMatrix values="0 0 0 0 1 0 0 0 0 1 0 0 0 0 1 0 0 0 1 0"/><feBlend in2="BackgroundImageFix" result="effect1_dropShadow_1419_50030"/><feBlend in="SourceGraphic" in2="effect1_dropShadow_1419_50030" result="shape"/><feColorMatrix in="SourceAlpha" values="0 0 0 0 0 0 0 0 0 0 0 0 0 0 0 0 0 0 127 0" result="hardAlpha"/><feOffset dy="-4"/><feGaussianBlur stdDeviation="4"/><feComposite in2="hardAlpha" operator="arithmetic" k2="-1" k3="1"/><feColorMatrix values="0 0 0 0 0.883659 0 0 0 0 0.635314 0 0 0 0 0.0558422 0 0 0 0.4 0"/><feBlend in2="shape" result="effect2_innerShadow_1419_50030"/></filter></defs></svg>
